X: 6
T: Sergeant Early's
Z: sebastian the m3g4p0p
S: https://thesession.org/tunes/10518#setting27384
R: jig
M: 6/8
L: 1/8
K: Dmaj
A | FED DED | GEG =c2e | dcA e<-fd | ecA A2G |
FED EFG | AGE =c2e | dcA GEA | DED D2 :|
d | cBA Bcd | efe e2d | dcd e<-fd | ecA A2d |
cBA Bcd | eag e2d | dcA GEA | DED D2 :|
